images/dip-green.svg

<svg height="122" viewBox="0 0 10000 122" width="10000" xmlns="http://www.w3.org/2000/svg" xmlns:xlink="http://www.w3.org/1999/xlink"><defs><path id="a" d="m0 122h10000v-122h-4842.9686c-23.89472 0-46.99964 8.55607428-65.1312 24.1189935l-91.9002 78.8810065-91.9002-78.8810065c-18.13156-15.56291922-41.23648-24.1189935-65.1312-24.1189935h-4842.9686z"/><filter id="b" height="116.4%" width="100.2%" x="-.1%" y="-8.2%"><feGaussianBlur in="SourceAlpha" result="shadowBlurInner1" stdDeviation="5"/><feOffset dx="0" dy="10" in="shadowBlurInner1" result="shadowOffsetInner1"/><feComposite in="shadowOffsetInner1" in2="SourceAlpha" k2="-1" k3="1" operator="arithmetic" result="shadowInnerInner1"/><feColorMatrix in="shadowInnerInner1" type="matrix" values="0 0 0 0 0   0 0 0 0 0   0 0 0 0 0  0 0 0 0.3 0"/></filter></defs><g fill="none"><use fill="#082114" xlink:href="#a"/><use fill="#000" filter="url(#b)" xlink:href="#a"/></g></svg>

<?xml version="1.0" encoding="UTF-8"?>
<svg width="10000px" height="122px" viewBox="0 0 10000 122" version="1.1" xmlns="http://www.w3.org/2000/svg" xmlns:xlink="http://www.w3.org/1999/xlink">
    <title>Dip</title>
    <defs>
        <path d="M0,122 L10000,122 L10000,0 L5157.0314,0 C5133.13668,-7.7720762e-13 5110.03176,8.55607428 5091.9002,24.1189935 L5000,103 L5000,103 L4908.0998,24.1189935 C4889.96824,8.55607428 4866.86332,-4.73347595e-13 4842.9686,0 L0,0 L0,0 L0,122 Z" id="path-1"></path>
        <filter x="-0.1%" y="-8.2%" width="100.2%" height="116.4%" filterUnits="objectBoundingBox" id="filter-2">
            <feGaussianBlur stdDeviation="5" in="SourceAlpha" result="shadowBlurInner1"></feGaussianBlur>
            <feOffset dx="0" dy="10" in="shadowBlurInner1" result="shadowOffsetInner1"></feOffset>
            <feComposite in="shadowOffsetInner1" in2="SourceAlpha" operator="arithmetic" k2="-1" k3="1" result="shadowInnerInner1"></feComposite>
            <feColorMatrix values="0 0 0 0 0   0 0 0 0 0   0 0 0 0 0  0 0 0 0.3 0" type="matrix" in="shadowInnerInner1"></feColorMatrix>
        </filter>
    </defs>
    <g id="Page-1-Copy" stroke="none" stroke-width="1" fill="none" fill-rule="evenodd">
        <g id="Dip" fill-rule="nonzero">
            <use fill="#082114" xlink:href="#path-1"></use>
            <use fill="black" fill-opacity="1" filter="url(#filter-2)" xlink:href="#path-1"></use>
        </g>
    </g>
</svg>
